img/logo-symbol-4.svg

<svg fill="none" height="55" viewBox="0 0 48 55" width="48" xmlns="http://www.w3.org/2000/svg" xmlns:xlink="http://www.w3.org/1999/xlink"><clipPath id="a"><path d="m0 .001953h47.6631v55h-47.6631z"/></clipPath><g clip-path="url(#a)"><path d="m23.806.00195312 23.8059 13.74444688v27.4887l-23.8059 13.7441-23.806-13.7441v-27.4887z" fill="#fff"/><g fill="#000"><path d="m39.9575 41.2427 3.8532-2.2278v-16.4744l-3.8532 2.2278z"/><path d="m37.1073 42.8909-3.8004 2.1973v-16.4744l3.8004-2.1973z"/><path d="m26.6562 48.9329v-16.4744l3.8004-2.1973v16.4745z"/><path clip-rule="evenodd" d="m23.806.00195312 23.8059 13.74444688v27.4887l-23.8059 13.7441-23.806-13.7441v-27.4887zm-.0001 1.10844688 22.8557 13.1958h-11.0019l-11.8538 13.1958-22.855799-13.1958zm-22.855804 16.4683.000005 23.119 22.855799 13.1958 22.8557-13.1958v-23.119l-22.8557 13.1958z" fill-rule="evenodd"/></g></g></svg>

<svg width="48" height="55" viewBox="0 0 48 55" fill="none" xmlns="http://www.w3.org/2000/svg">
<g clip-path="url(#clip0_3458_303)">
<path d="M23.806 0.00195312L47.6119 13.7464V41.2351L23.806 54.9792L0 41.2351V13.7464L23.806 0.00195312Z" fill="white"/>
<path d="M39.9575 41.2427L43.8107 39.0149V22.5405L39.9575 24.7683V41.2427Z" fill="black"/>
<path d="M37.1073 42.8909L33.3069 45.0882V28.6138L37.1073 26.4165V42.8909Z" fill="black"/>
<path d="M26.6562 48.9329V32.4585L30.4566 30.2612V46.7357L26.6562 48.9329Z" fill="black"/>
<path fill-rule="evenodd" clip-rule="evenodd" d="M23.806 0.00195312L47.6119 13.7464V41.2351L23.806 54.9792L0 41.2351V13.7464L23.806 0.00195312ZM23.8059 1.1104L46.6616 14.3062H35.6597L23.8059 27.502L0.950101 14.3062L23.8059 1.1104ZM0.950096 17.5787L0.950101 40.6977L23.8059 53.8935L46.6616 40.6977V17.5787L23.8059 30.7745L0.950096 17.5787Z" fill="black"/>
</g>
<defs>
<clipPath id="clip0_3458_303">
<rect width="47.6631" height="55" fill="white" transform="translate(0 0.00195312)"/>
</clipPath>
</defs>
</svg>
